X:3085
T:En pige gik i enge
C:anon.
O:Denmark
F:http://abc.musicaviva.com/tunes/denmark/en-pige-gik-i-enge.abc
M:2/4
L:1/8
K:C
G|"C"cc cc|"C"c2 cc|"G"dd BB|"C"c2 z:|e|"C"ee ee|
w:En pi-ge gik i en-ge, hun skul-le sk\ae-re str\aa. Da kom en rid-der
"C"eG G2|"Am"c2 "G"d2|"C"ec cc|"G7"dd BB|"C"c2 z|]
w:ri-den-de, \aah ja, ri-den-de, b\od hen-de stil-le st\aa.
W:
W:En pige gik i enge,
W:hun skulle sk\aere str\aa.
W:Da kom en ridder ridende,
W:  \aah ja, ridende,
W:b\od hende stille st\aa.
W:
W:
W:  From Musica Viva - http://www.musicaviva.com
W:  the Internet center for free sheet music downloads.
